X:1
T:[ID 1-46b]
T:[ID 1-46b]
T:Bezeichnung standardisiert: Tantz Tantz
T:Urheber unbekannt Datum in der hier transkribierten schriftlichen Quelle: vermutlich vor 1767
C:Urheber unbekannt
C:Datum in der hier transkribierten schriftlichen Quelle: vermutlich vor 1767
L:1/8
M:none
K:D
V:1 treble 
V:1
 aa/f/ g2 | aa/f/ g2 | fe/d/ ed/c/ | d2 D2 :: fe/f/ g2 | fe/d/ eA | fe/f/ g2 | fe/d/ ea/g/ | %8
 fe/d/ ed/c/ | d2 D2 :| %10

